static/images/clients/svg/ica.svg

<svg fill="none" height="26" viewBox="0 0 52 26" width="52" xmlns="http://www.w3.org/2000/svg"><path clip-rule="evenodd" d="m37.4429 0 14.5571 25.5493h-7.3667l-1.6023-2.7694h-7.332l2.5614-4.5009h2.2072l-3.0247-5.331-3.1682 5.539c-.4978.8666-.9966 1.6274-1.4945 2.2851-2.4199 3.1855-6.3363 5.2279-10.6773 5.2279-7.2964 0-13.24075-5.7816-13.24075-12.8787 0-7.097 5.94435-12.880559 13.24075-12.880559 2.4912 0 4.7339.658667 6.6916 1.766069l-3.1325 5.5043c-1.0798-.63215-2.3079-.96644-3.5591-.96874-3.7373 0-6.7629 2.94282-6.7629 6.57703 0 3.6362 3.0256 6.579 6.7629 6.579 2.028 0 3.7016-.8311 4.9111-2.0434.5344-.5191 1.1392-1.3848 1.3173-1.6958zm-37.4429 25.5493v-24.855967h6.47785v24.856967h-6.47785z" fill="#282828" fill-rule="evenodd"/></svg>

<svg width="52" height="26" viewBox="0 0 52 26" fill="none" xmlns="http://www.w3.org/2000/svg">
<path fill-rule="evenodd" clip-rule="evenodd" d="M37.4429 0L52 25.5493H44.6333L43.031 22.7799H35.699L38.2604 18.279H40.4676L37.4429 12.948L34.2747 18.487C33.7769 19.3536 33.2781 20.1144 32.7802 20.7721C30.3603 23.9576 26.4439 26 22.1029 26C14.8065 26 8.86215 20.2184 8.86215 13.1213C8.86215 6.0243 14.8065 0.240741 22.1029 0.240741C24.5941 0.240741 26.8368 0.899408 28.7945 2.00681L25.662 7.51111C24.5822 6.87896 23.3541 6.54467 22.1029 6.54237C18.3656 6.54237 15.34 9.48519 15.34 13.1194C15.34 16.7556 18.3656 19.6984 22.1029 19.6984C24.1309 19.6984 25.8045 18.8673 27.014 17.655C27.5484 17.1359 28.1532 16.2702 28.3313 15.9592L37.4429 0ZM0 25.5493V0.693333H6.47785V25.5503H0V25.5493Z" fill="#282828"/>
</svg>
